X:7675
T: Ivanica
R: lesnoto
O: Bulgaria
Z: John Chambers <jc@eddie.mit.edu> http://eddie.mit.edu/~jc/music/
M: 7/8
L: 1/8
K: D
P: Instr:
|| "D"[FD][GE][AF] [AF][GE] [F2D] | [AF][BG][cA] [cA][BG] [A2F] \
| "A"[cA][dB][ec] "E"[ec][dB] [d/B][c/A][d/B][e/c] | "A"[c7A] |
| "A"[cA][dB][ec] [ec][dB] [dB][cA] | "A7"[c2A][dB] [cA][BG] [BG][AF] \
| "G"[B2G][cA] "A7"[AF][GE] [GE][FD] | "D"[F7D]  ||
P: Vocal:
|| "G"[B2d][Bd] [A2c] [B2d] | "A7"[c2e][Bd] [A2c] [G2B] \
